X:99012
T:Mrs Stewart Sinton's Reel
P:Pibroch o' Donuil Dhu
C:Traditional
R:Jig (8x32)
B:RSCDS Gr-12
Z:Anselm Lingnau <anselm@strathspey.org>
M:6/8
L:1/8
K:G
"G"d>BB "C"e>fg|"G"d>BB B2G|d>BB "C"e>fg|"G"d>BG "D7"A2G|
"G"d>BB "C"e>cc|"G"d>BB B2G|"Am"A>AB c>de|"G"d>BG "D"A2"G"G||
"G"d>BB "C"e>cc|"G"d<BB B2G|d<BB "C"e<cc|"G"dBG "D7"A2G|
"G"d>BB "C"e<cc|"G"d>BB B>AG|"Am"A<AB c>de|"G"dBG "D7"A2"G"G|]
